X: 20991
T: Julia Clifford's
R: polka
M: 2/4
K: Dmajor
|:fe/f/ ge|fe/f/ ge|fd ed|e/f/e/d/ BA|
fe/f/ ge|fe/f/ ge|fd e/f/e/c/|dfde:|
|:A>B AF|Af af|ed ef/e/|dA B/c/d/B/|
A>B AF|Af af|ef gb|ef/e/ dB:|

